X: 712
T: O'Reilly's Greyhound   #2
R: reel
%S: s:2 b:10(5+5)
B: Francis O'Neill: "The Dance Music of Ireland" (1907) #712
Z: Frank Nordberg - http://www.musicaviva.com
F: http://www.musicaviva.com/abc/tunes/ireland/oneill-1001/0712/oneill-1001-0712-1.abc
N: Compacted via repeats and multiple endings [JC]
%m: Tn = (3n/o/n/
%m: Tn3 = n(3n/o/n/ m/n/
M: C|
L: 1/8
K: G	% was Ador, but Gmaj seems more accurate ...
gf !segno!"^A"\
|: edBA TG3A | Bdef g2fg | edBA  GABc | d2ed BAHA2 :|"^B"|:: eTa3 bga |
| [1 g | eaae g2fg :|[2 f | gedB BAA2 :[3 g | eaaf gfga | bgaf  gfed | Bdef g2f!segno!g |]
%%begintext align
%% Slurs were omitted here, since they make the compaction impossible.
%% Also, many trad Irish teachers prefer to teach their favorite bowings/slurrings.
%% See the other transcriptions for the O'Neills' bowings.
%%endtext
